X: 43287
T: Woodcock, The
R: jig
M: 6/8
K: Gmajor
|:^c|dBG cGE|DBD G2 A|B^AB dBG|dcB AA/B/^c|
dBG cGE|DED G3|B^AB d>ed|1 AFd G2:|2 cAd G2||
|:e|dBG ecA|f^ef g2 d|ege dBG|dcB A2 e|
[1 dBG e2 c|fd/e/f g3|e/f/ge dBg|dcF G2:|
[2 dBG cGE|DED G3|B^AB d>ed|cAd G2||

